assets/banana.svg

<?xml version="1.0" encoding="utf-8"?>
<!-- Uploaded to: SVG Repo, www.svgrepo.com, Generator: SVG Repo Mixer Tools -->
<svg width="800px" height="800px" viewBox="0 0 1024 1024" class="icon"  version="1.1" xmlns="http://www.w3.org/2000/svg"><path d="M746.666667 234.666667c21.333333 0 149.333333-21.333333 149.333333 170.666666S618.666667 938.666667 234.666667 938.666667c-42.666667 0-85.333333-21.333333-85.333334-21.333334l-21.333333-64s21.333333-85.333333 149.333333-149.333333 218.944-117.632 273.344-172.010667C593.344 489.344 661.333333 405.333333 661.333333 341.333333c0-41.770667 42.666667-85.333333 42.666667-85.333333" fill="#FFE082" /><path d="M170.666667 874.666667s149.333333-42.666667 277.333333-106.666667 405.333333-256 320-533.333333c0 0 128-21.333333 128 170.666666S618.666667 938.666667 234.666667 938.666667c-42.666667 0-85.333333-21.333333-85.333334-21.333334l21.333334-42.666666z" fill="#FFCA28" /><path d="M876.010667 297.344C836.010667 211.562667 746.666667 256 746.666667 85.333333c-64 0-106.666667 42.666667-106.666667 42.666667s64 64 64 128c42.666667 0 77.056-3.349333 80.874667 101.333333 28.842667-122.218667 91.136-59.989333 91.136-59.989333z" fill="#C0CA33" /><path d="M661.333333 341.333333s-1.344-38.677333 42.666667-85.333333 85.994667-8.661333 85.994667-8.661333l-5.12 109.994666s-18.666667-69.333333-48-71.104C675.008 282.496 661.333333 341.333333 661.333333 341.333333z" fill="#C0CA33" /><path d="M128 874.666667l21.333333 42.666666h21.333334v-42.666666l-42.666667-21.333334z" fill="#5D4037" /><path d="M746.666667 85.333333c-64 0-106.666667 42.666667-106.666667 42.666667h64l42.666667-42.666667z" fill="#827717" /></svg>

<svg width="800" height="800" viewBox="0 0 1024 1024" class="icon" xmlns="http://www.w3.org/2000/svg"><path d="M746.667 234.667C768 234.667 896 213.333 896 405.333S618.667 938.667 234.667 938.667c-42.667 0-85.334-21.334-85.334-21.334l-21.333-64S149.333 768 277.333 704s218.944-117.632 273.344-172.01c42.667-42.646 110.656-126.657 110.656-190.657C661.333 299.563 704 256 704 256" fill="#FFE082"/><path d="M170.667 874.667S320 832 448 768s405.333-256 320-533.333c0 0 128-21.334 128 170.666S618.667 938.667 234.667 938.667c-42.667 0-85.334-21.334-85.334-21.334l21.334-42.666z" fill="#FFCA28"/><path d="M876.01 297.344c-40-85.781-129.343-41.344-129.343-212.01C682.667 85.333 640 128 640 128s64 64 64 128c42.667 0 77.056-3.35 80.875 101.333 28.842-122.218 91.136-59.989 91.136-59.989z" fill="#C0CA33"/><path d="M661.333 341.333S659.99 302.656 704 256s85.995-8.661 85.995-8.661l-5.12 109.994s-18.667-69.333-48-71.104c-61.867-3.733-75.542 55.104-75.542 55.104z" fill="#C0CA33"/><path d="m128 874.667 21.333 42.666h21.334v-42.666L128 853.333z" fill="#5D4037"/><path d="M746.667 85.333C682.667 85.333 640 128 640 128h64l42.667-42.667z" fill="#827717"/></svg>
